X: 1
T:Minuet
C:Johann Kuhnau
R:Minuet
Z:Transcribed by Frank Nordberg - http://www.musicaviva.com

V:1 Program 1 6 %Harpsichord
V:2 Program 1 6 bass %Harpsichord
M:3/4
L:1/4
Q:1/4=120
K:F
V:1
fcd|A2B|cd/c/ B/A/|G&gt;FF|fcd|A2B|cd/c/ B/A/|G3:|
V:2
z3|F,C,D,|A,,2B,,|C,2F,|z3|F,C,D,|A,,2B,,|C,2C,:|

V:1
|:G2A|B2c|def/g/|e2f|gcd|=B&gt;Bc|d/c/=B&gt;c|c3|
V:2
|:CB,A,|G,2A,|B,2A,|C,2D,|E,2F,|G,2A,|F,G,G,|C,2C,|

V:1
cGA|_B3|AB/A/ G/F/|E/F/ E/D/C|cGA|B&gt;cA|B/A/G&gt;F|F3:|
V:2
z3|G,D,E,|F,2B,|C2B,|A,B,A,|G,G,F,|B,CC,|F,2F,:|

